usr/share/icons/biglinux-icons-material/16/actions/deletecell.svg

<svg xmlns="http://www.w3.org/2000/svg" viewBox="0 0 16 16"><path d="M2 2v12h5V6h2v1h1V6h3v1h1V2H2zm1 1h3v2H3V3zm4 0h2v2H7V3zm3 0h3v2h-3V3zM3 6h3v3H3V6zm0 4h3v3H3v-3z" style="fill:currentColor;fill-opacity:1;stroke:none;color:#dedede"/><path d="M8.99 8 8 8.99 10.01 11 8 13.01l.99.99L11 11.99 13.01 14l.99-.99L11.99 11 14 8.99 13.01 8 11 10.01Z" style="fill:currentColor;fill-opacity:1;stroke:none;color:#da4453"/></svg>

<svg xmlns="http://www.w3.org/2000/svg" viewBox="0 0 16 16">
  <defs id="defs3051">
    <style type="text/css" id="current-color-scheme">
      .ColorScheme-Text {
        color:#363636;
      }
      .ColorScheme-NegativeText {
        color:#da4453;
      }
      </style>
  </defs>
 <path style="fill:currentColor;fill-opacity:1;stroke:none" 
     d="M 2 2 L 2 14 L 7 14 L 7 13 L 7 10 L 7 9 L 7 6 L 9 6 L 9 7 L 10 7 L 10 6 L 13 6 L 13 7 L 14 7 L 14 2 L 2 2 z M 3 3 L 6 3 L 6 5 L 3 5 L 3 3 z M 7 3 L 9 3 L 9 5 L 7 5 L 7 3 z M 10 3 L 13 3 L 13 5 L 10 5 L 10 3 z M 3 6 L 6 6 L 6 9 L 3 9 L 3 6 z M 3 10 L 6 10 L 6 13 L 3 13 L 3 10 z "
     class="ColorScheme-Text"
     />
  <path
     style="fill:currentColor;fill-opacity:1;stroke:none" 
     class="ColorScheme-NegativeText"
     d="M 8.99,8 8,8.99 10.01,11 8,13.01 8.99,14 11,11.99 13.01,14 14,13.01 11.99,11 14,8.99 13.01,8 11,10.01 Z" />
</svg>
